X:299
T: Bayiqiyi
N: C1796
O: China, Jiangxi Nanchang
S: IV, 215]
R: Xiaodiao]
M: 4/4
L: 1/16
K: G
d2d2B2G2A8
G2A2G2E2D8
D2E2D2z2d2A2d2z2
A2ddA2ddA6G2 | E2D2E2G2D8 |
d2B2A2z2d2B2A2z2 | E2D2G2A2E8 |
B2d2e2z2d2B2A2A2 | E2D2E2G2A4z2A2 | G2A2G2E2D8 |
G2E2D2z2G2E2D2zD | E3DE2G2D8

